X: 17682
T: Holly Spoon, The
R: reel
M: 4/4
K: Gmajor
|:d2BG AE~E2|(3ABc BG A2 ge|d2BG AE~E2|1 GBAF G2Bc:|2 GBAF G2 (3ABc||
dggf gagf|edef gdBc|dg{a}gf ~g3f|edef ~g3B|
dggf ~g2gf|edef gedB|(3cde ec (3Bcd BG|(3ABc BA G2gf||

